X:576
T:Colledge Hornpipe. JBut.574, The
C:'A Troop
B:John Buttrey MS, poss. Lincolnshire, early 19thC
S:https://buttreymilitarysocialtunes1800.wordpress.com/
Z:Village Music Project 2019 Eric Conrad
M:C|
Q:1/2=80
L:1/8
K:D %one sharp in ms
P:A
|: "_key 1 sharp in ms"d>c | d2D2 D2A>G | FAd2 d2e>d | e2E2 E2e>d | c>e a4 Bc |
dcBA BAGF | gfed {d}c2BA | Bdce dfeg | f2d2 d2 :|
P:B
|: A>G | FAdA FAdA | B2G2 G2B>A | GBeB GBeB | c2A2 A2d>c |
db3 {b}a2g>f | gfed {d}c2BA | Bdce dfeg | f2d2 d2 :|

